Numix-Light/16/status/indicator-keyboard-Si-2.svg

<?xml version="1.0" encoding="UTF-8" standalone="no"?>
<svg
   xmlns:dc="http://purl.org/dc/elements/1.1/"
   xmlns:cc="http://creativecommons.org/ns#"
   xmlns:rdf="http://www.w3.org/1999/02/22-rdf-syntax-ns#"
   xmlns:svg="http://www.w3.org/2000/svg"
   xmlns="http://www.w3.org/2000/svg"
   xmlns:sodipodi="http://sodipodi.sourceforge.net/DTD/sodipodi-0.dtd"
   xmlns:inkscape="http://www.inkscape.org/namespaces/inkscape"
   viewBox="0 0 16 16"
   id="svg2"
   version="1.1"
   inkscape:version="0.91 r13725"
   sodipodi:docname="indicator-keyboard-Si-2.svg">
  <metadata
     id="metadata14">
    <rdf:RDF>
      <cc:Work
         rdf:about="">
        <dc:format>image/svg+xml</dc:format>
        <dc:type
           rdf:resource="http://purl.org/dc/dcmitype/StillImage" />
      </cc:Work>
    </rdf:RDF>
  </metadata>
  <defs
     id="defs12" />
  <sodipodi:namedview
     pagecolor="#ffffff"
     bordercolor="#666666"
     borderopacity="1"
     objecttolerance="10"
     gridtolerance="10"
     guidetolerance="10"
     inkscape:pageopacity="0"
     inkscape:pageshadow="2"
     inkscape:window-width="640"
     inkscape:window-height="480"
     id="namedview10"
     showgrid="false"
     inkscape:zoom="14.75"
     inkscape:cx="8"
     inkscape:cy="8"
     inkscape:window-x="65"
     inkscape:window-y="24"
     inkscape:window-maximized="0"
     inkscape:current-layer="svg2" />
  <path
     style="fill:#353535;fill-opacity:1"
     d="M 1.5996094 0 C 0.71320937 2.9605947e-16 0 0.71320937 0 1.5996094 L 0 14.400391 C 2.9605947e-16 15.286791 0.71320937 16 1.5996094 16 L 14.400391 16 C 15.286791 16 16 15.286791 16 14.400391 L 16 1.5996094 C 16 0.71320937 15.286791 0 14.400391 0 L 1.5996094 0 z M 8.7714844 4.5898438 C 8.8914844 4.5898438 8.9921719 4.6308438 9.0761719 4.7148438 C 9.1601719 4.7928438 9.203125 4.9010625 9.203125 5.0390625 C 9.203125 5.1770625 9.1601719 5.2870937 9.0761719 5.3710938 C 8.9921719 5.4490937 8.8914844 5.4882813 8.7714844 5.4882812 C 8.6514844 5.4882812 8.5488438 5.4490937 8.4648438 5.3710938 C 8.3808438 5.2870937 8.3378906 5.1770625 8.3378906 5.0390625 C 8.3378906 4.9010625 8.3808437 4.7928438 8.4648438 4.7148438 C 8.5488437 4.6308438 8.6514844 4.5898437 8.7714844 4.5898438 z M 5.5351562 4.7246094 C 5.7031562 4.7246094 5.8672969 4.7357656 6.0292969 4.7597656 C 6.1912969 4.7837656 6.3405156 4.817375 6.4785156 4.859375 C 6.6225156 4.895375 6.7531875 4.936375 6.8671875 4.984375 C 6.9871875 5.032375 7.0860625 5.0846719 7.1640625 5.1386719 L 6.9472656 5.6503906 C 6.7732656 5.5303906 6.5605937 5.4352813 6.3085938 5.3632812 C 6.0625938 5.2912813 5.7958125 5.2558594 5.5078125 5.2558594 C 5.3098125 5.2558594 5.1269844 5.2763594 4.9589844 5.3183594 C 4.7969844 5.3543594 4.6551562 5.4178125 4.5351562 5.5078125 C 4.4151562 5.5918125 4.3200469 5.6980781 4.2480469 5.8300781 C 4.1820469 5.9620781 4.1484375 6.1225938 4.1484375 6.3085938 C 4.1484375 6.5005937 4.1838594 6.6629219 4.2558594 6.7949219 C 4.3278594 6.9269219 4.4267344 7.0407187 4.5527344 7.1367188 C 4.6847344 7.2327187 4.8377188 7.3184844 5.0117188 7.3964844 C 5.1857188 7.4744844 5.3760781 7.556625 5.5800781 7.640625 C 5.8260781 7.742625 6.0554844 7.8433125 6.2714844 7.9453125 C 6.4934844 8.0473125 6.6856562 8.1686406 6.8476562 8.3066406 C 7.0096563 8.4446406 7.1403281 8.6125469 7.2363281 8.8105469 C 7.3323281 9.0085469 7.3789062 9.2510625 7.3789062 9.5390625 C 7.3789062 10.103063 7.1811563 10.526594 6.7851562 10.808594 C 6.3951562 11.090594 5.8653594 11.230469 5.1933594 11.230469 C 4.9533594 11.230469 4.7331563 11.215547 4.5351562 11.185547 C 4.3371562 11.155547 4.1599062 11.120125 4.0039062 11.078125 C 3.8479062 11.030125 3.717375 10.981594 3.609375 10.933594 C 3.501375 10.885594 3.4154687 10.844594 3.3554688 10.808594 L 3.5546875 10.277344 C 3.6146875 10.313344 3.694875 10.354344 3.796875 10.402344 C 3.898875 10.450344 4.0202031 10.498875 4.1582031 10.546875 C 4.2962031 10.588875 4.451 10.624297 4.625 10.654297 C 4.799 10.684297 4.9911719 10.699219 5.2011719 10.699219 C 5.6871719 10.699219 6.0659375 10.613453 6.3359375 10.439453 C 6.6059375 10.259453 6.7402344 9.970219 6.7402344 9.5742188 C 6.7402344 9.3462187 6.6954688 9.1578125 6.6054688 9.0078125 C 6.5214687 8.8518125 6.4076719 8.7230938 6.2636719 8.6210938 C 6.1196719 8.5130937 5.9535781 8.4235625 5.7675781 8.3515625 C 5.5815781 8.2735625 5.3875938 8.1914219 5.1835938 8.1074219 C 4.9255938 8.0054219 4.6942344 7.9009687 4.4902344 7.7929688 C 4.2862344 7.6849688 4.11275 7.5655937 3.96875 7.4335938 C 3.82475 7.2955937 3.7127656 7.1388438 3.6347656 6.9648438 C 3.5627656 6.7908437 3.5273437 6.5875156 3.5273438 6.3535156 C 3.5273438 5.8195156 3.7045938 5.4146719 4.0585938 5.1386719 C 4.4125937 4.8626719 4.9051562 4.7246094 5.5351562 4.7246094 z M 8.4824219 6.4433594 L 9.0683594 6.4433594 L 9.0683594 11.095703 L 8.4824219 11.095703 L 8.4824219 6.4433594 z M 11.316406 8.7539062 C 11.710306 8.7539062 12.006178 8.851875 12.205078 9.046875 C 12.403978 9.237975 12.503906 9.5044563 12.503906 9.8476562 C 12.503906 9.9997563 12.476475 10.14475 12.421875 10.28125 C 12.367275 10.41385 12.292819 10.543169 12.199219 10.667969 C 12.109519 10.792769 12.005672 10.912297 11.888672 11.029297 C 11.771672 11.146297 11.65215 11.263859 11.53125 11.380859 C 11.42985 11.478359 11.331875 11.578288 11.234375 11.679688 C 11.140775 11.777187 11.054562 11.877116 10.976562 11.978516 C 10.902463 12.076016 10.841722 12.172031 10.794922 12.269531 C 10.752022 12.363131 10.730469 12.457181 10.730469 12.550781 L 10.730469 12.5625 L 12.644531 12.5625 L 12.644531 12.896484 L 10.308594 12.896484 C 10.308594 12.888684 10.306668 12.874969 10.302734 12.855469 L 10.302734 12.755859 C 10.302734 12.572559 10.336044 12.402094 10.402344 12.246094 C 10.468644 12.086194 10.552897 11.937275 10.654297 11.796875 C 10.759597 11.656475 10.8752 11.525197 11 11.404297 C 11.1287 11.283397 11.252141 11.165834 11.369141 11.052734 C 11.466641 10.959134 11.556778 10.869003 11.642578 10.783203 C 11.732278 10.693503 11.810653 10.603366 11.876953 10.509766 C 11.943253 10.416166 11.996156 10.316237 12.035156 10.210938 C 12.074156 10.105638 12.09375 9.9900344 12.09375 9.8652344 C 12.09375 9.5922344 12.019294 9.39825 11.871094 9.28125 C 11.726794 9.16035 11.544566 9.0996094 11.322266 9.0996094 C 11.197466 9.0996094 11.085781 9.1152844 10.988281 9.1464844 C 10.890781 9.1776844 10.804569 9.2149125 10.730469 9.2578125 C 10.660269 9.2968125 10.599528 9.3379594 10.548828 9.3808594 C 10.498128 9.4237594 10.4609 9.4570688 10.4375 9.4804688 L 10.238281 9.2167969 C 10.261681 9.1894969 10.302828 9.1503094 10.361328 9.0996094 C 10.423728 9.0450094 10.500144 8.9921062 10.589844 8.9414062 C 10.683444 8.8907063 10.791209 8.8476 10.912109 8.8125 C 11.033009 8.7735 11.168206 8.7539063 11.316406 8.7539062 z "
     id="path4" />
</svg>

<svg xmlns="http://www.w3.org/2000/svg" viewBox="0 0 16 16">
 <path d="m 1.6 0 c -0.886 0 -1.6 0.713 -1.6 1.6 l 0 12.801 c 0 0.886 0.713 1.6 1.6 1.6 l 12.801 0 c 0.886 0 1.6 -0.713 1.6 -1.6 l 0 -12.801 c 0 -0.886 -0.713 -1.6 -1.6 -1.6 l -12.801 0 z m 7.172 4.59 c 0.12 0 0.221 0.041 0.305 0.125 c 0.084 0.078 0.127 0.186 0.127 0.324 c 0 0.138 -0.043 0.248 -0.127 0.332 c -0.084 0.078 -0.185 0.117 -0.305 0.117 c -0.12 0 -0.223 -0.039 -0.307 -0.117 c -0.084 -0.084 -0.127 -0.194 -0.127 -0.332 c 0 -0.138 0.043 -0.246 0.127 -0.324 c 0.084 -0.084 0.187 -0.125 0.307 -0.125 z m -3.236 0.135 c 0.168 0 0.332 0.011 0.494 0.035 c 0.162 0.024 0.311 0.058 0.449 0.1 c 0.144 0.036 0.275 0.077 0.389 0.125 c 0.12 0.048 0.219 0.1 0.297 0.154 l -0.217 0.512 c -0.174 -0.12 -0.387 -0.215 -0.639 -0.287 c -0.246 -0.072 -0.513 -0.107 -0.801 -0.107 c -0.198 0 -0.381 0.02 -0.549 0.063 c -0.162 0.036 -0.304 0.099 -0.424 0.189 c -0.12 0.084 -0.215 0.19 -0.287 0.322 c -0.066 0.132 -0.1 0.293 -0.1 0.479 c 0 0.192 0.035 0.354 0.107 0.486 c 0.072 0.132 0.171 0.246 0.297 0.342 c 0.132 0.096 0.285 0.182 0.459 0.26 c 0.174 0.078 0.364 0.16 0.568 0.244 c 0.246 0.102 0.475 0.203 0.691 0.305 c 0.222 0.102 0.414 0.223 0.576 0.361 c 0.162 0.138 0.293 0.306 0.389 0.504 c 0.096 0.198 0.143 0.441 0.143 0.729 c 0 0.564 -0.198 0.988 -0.594 1.27 c -0.39 0.282 -0.92 0.422 -1.592 0.422 c -0.24 0 -0.46 -0.015 -0.658 -0.045 c -0.198 -0.03 -0.375 -0.065 -0.531 -0.107 c -0.156 -0.048 -0.287 -0.097 -0.395 -0.145 c -0.108 -0.048 -0.194 -0.089 -0.254 -0.125 l 0.199 -0.531 c 0.06 0.036 0.14 0.077 0.242 0.125 c 0.102 0.048 0.223 0.097 0.361 0.145 c 0.138 0.042 0.293 0.077 0.467 0.107 c 0.174 0.03 0.366 0.045 0.576 0.045 c 0.486 0 0.865 -0.086 1.135 -0.26 c 0.27 -0.18 0.404 -0.469 0.404 -0.865 c 0 -0.228 -0.045 -0.416 -0.135 -0.566 c -0.084 -0.156 -0.198 -0.285 -0.342 -0.387 c -0.144 -0.108 -0.31 -0.198 -0.496 -0.27 c -0.186 -0.078 -0.38 -0.16 -0.584 -0.244 c -0.258 -0.102 -0.489 -0.206 -0.693 -0.314 c -0.204 -0.108 -0.377 -0.227 -0.521 -0.359 c -0.144 -0.138 -0.256 -0.295 -0.334 -0.469 c -0.072 -0.174 -0.107 -0.377 -0.107 -0.611 c 0 -0.534 0.177 -0.939 0.531 -1.215 c 0.354 -0.276 0.847 -0.414 1.477 -0.414 z m 2.947 1.719 l 0.586 0 l 0 4.652 l -0.586 0 l 0 -4.652 z m 2.834 2.311 c 0.394 0 0.69 0.098 0.889 0.293 c 0.199 0.191 0.299 0.458 0.299 0.801 c 0 0.152 -0.027 0.297 -0.082 0.434 c -0.055 0.133 -0.129 0.262 -0.223 0.387 c -0.09 0.125 -0.194 0.244 -0.311 0.361 c -0.117 0.117 -0.237 0.235 -0.357 0.352 c -0.101 0.098 -0.199 0.197 -0.297 0.299 c -0.094 0.097 -0.18 0.197 -0.258 0.299 c -0.074 0.097 -0.135 0.194 -0.182 0.291 c -0.043 0.094 -0.064 0.188 -0.064 0.281 l 0 0.012 l 1.914 0 l 0 0.334 l -2.336 0 c 0 -0.008 -0.002 -0.022 -0.006 -0.041 l 0 -0.1 c 0 -0.183 0.033 -0.354 0.1 -0.51 c 0.066 -0.16 0.151 -0.309 0.252 -0.449 c 0.105 -0.14 0.221 -0.272 0.346 -0.393 c 0.129 -0.121 0.252 -0.238 0.369 -0.352 c 0.097 -0.094 0.188 -0.184 0.273 -0.27 c 0.09 -0.09 0.168 -0.18 0.234 -0.273 c 0.066 -0.094 0.119 -0.194 0.158 -0.299 c 0.039 -0.105 0.059 -0.221 0.059 -0.346 c 0 -0.273 -0.074 -0.467 -0.223 -0.584 c -0.144 -0.121 -0.327 -0.182 -0.549 -0.182 c -0.125 0 -0.236 0.016 -0.334 0.047 c -0.098 0.031 -0.184 0.068 -0.258 0.111 c -0.07 0.039 -0.131 0.08 -0.182 0.123 c -0.051 0.043 -0.088 0.076 -0.111 0.1 l -0.199 -0.264 c 0.023 -0.027 0.065 -0.066 0.123 -0.117 c 0.062 -0.055 0.139 -0.108 0.229 -0.158 c 0.094 -0.051 0.201 -0.094 0.322 -0.129 c 0.121 -0.039 0.256 -0.059 0.404 -0.059 z" style="fill:#353535;fill-opacity:1"/>
</svg>
